src/assets/outline/DirectboxSend.svg

<svg width="24" height="24" viewBox="0 0 24 24"  xmlns="http://www.w3.org/2000/svg">
<path d="M11.9999 8.74999C11.5899 8.74999 11.2499 8.40999 11.2499 7.99999V3.80999L10.5299 4.52999C10.2399 4.81999 9.75994 4.81999 9.46994 4.52999C9.17994 4.23999 9.17994 3.75999 9.46994 3.46999L11.4699 1.46999C11.6799 1.25999 12.0099 1.18999 12.2899 1.30999C12.5699 1.41999 12.7499 1.69999 12.7499 1.99999V7.99999C12.7499 8.40999 12.4099 8.74999 11.9999 8.74999Z" />
<path d="M13.9999 4.74994C13.8099 4.74994 13.6199 4.67994 13.4699 4.52994L11.4699 2.52994C11.1799 2.23994 11.1799 1.75994 11.4699 1.46994C11.7599 1.17994 12.2399 1.17994 12.5299 1.46994L14.5299 3.46994C14.8199 3.75994 14.8199 4.23994 14.5299 4.52994C14.3799 4.67994 14.1899 4.74994 13.9999 4.74994Z" />
<path d="M16 22.75H8C2.25 22.75 2.25 19.7 2.25 17V16C2.25 13.77 2.25 11.25 7 11.25C8.19 11.25 8.63 11.54 9.25 12C9.28 12.03 9.32 12.05 9.35 12.09L10.37 13.17C11.23 14.08 12.79 14.08 13.65 13.17L14.67 12.09C14.7 12.06 14.73 12.03 14.77 12C15.39 11.53 15.83 11.25 17.02 11.25C21.77 11.25 21.77 13.77 21.77 16V17C21.75 20.82 19.82 22.75 16 22.75ZM7 12.75C3.75 12.75 3.75 13.77 3.75 16V17C3.75 19.74 3.75 21.25 8 21.25H16C18.98 21.25 20.25 19.98 20.25 17V16C20.25 13.77 20.25 12.75 17 12.75C16.28 12.75 16.13 12.84 15.7 13.16L14.73 14.19C14.01 14.95 13.04 15.37 12 15.37C10.96 15.37 9.99 14.95 9.27 14.19L8.3 13.16C7.87 12.84 7.72 12.75 7 12.75Z" />
<path d="M5 12.7502C4.59 12.7502 4.25 12.4102 4.25 12.0002V10.0002C4.25 8.06022 4.25 5.65022 7.93 5.30022C8.33 5.25022 8.71 5.56022 8.75 5.98022C8.79 6.39022 8.49 6.76022 8.07 6.80022C5.75 7.01022 5.75 7.95022 5.75 10.0002V12.0002C5.75 12.4102 5.41 12.7502 5 12.7502Z" />
<path d="M18.9999 12.7502C18.5899 12.7502 18.2499 12.4102 18.2499 12.0002V10.0002C18.2499 7.95022 18.2499 7.01022 15.9299 6.79022C15.5199 6.75022 15.2199 6.38022 15.2599 5.97022C15.2999 5.56022 15.6599 5.25022 16.0799 5.30022C19.7599 5.65022 19.7599 8.06022 19.7599 10.0002V12.0002C19.7499 12.4102 19.4099 12.7502 18.9999 12.7502Z" />
</svg>

<?xml version="1.0" encoding="UTF-8"?>
<svg width="24" height="24" viewBox="0 0 24 24" xmlns="http://www.w3.org/2000/svg">
 <path d="m12 8.75c-0.41 0-0.75-0.34-0.75-0.75v-4.19l-0.72 0.72c-0.29 0.29-0.76996 0.29-1.06 0s-0.29-0.77 0-1.06l2-2c0.21-0.21 0.54-0.28 0.82-0.16 0.28 0.11 0.46 0.39 0.46 0.69v6c0 0.41-0.34 0.75-0.75 0.75z"/>
 <path d="m14 4.7499c-0.19 0-0.38-0.07-0.53-0.22l-2-2c-0.29-0.29-0.29-0.77 0-1.06s0.77-0.29 1.06 0l2 2c0.29 0.29 0.29 0.77 0 1.06-0.15 0.15-0.34 0.22-0.53 0.22z"/>
 <path d="m16 22.75h-8c-5.75 0-5.75-3.05-5.75-5.75v-1c0-2.23 0-4.75 4.75-4.75 1.19 0 1.63 0.29 2.25 0.75 0.03 0.03 0.07 0.05 0.1 0.09l1.02 1.08c0.86 0.91 2.42 0.91 3.28 0l1.02-1.08c0.03-0.03 0.06-0.06 0.1-0.09 0.62-0.47 1.06-0.75 2.25-0.75 4.75 0 4.75 2.52 4.75 4.75v1c-0.02 3.82-1.95 5.75-5.77 5.75zm-9-10c-3.25 0-3.25 1.02-3.25 3.25v1c0 2.74 0 4.25 4.25 4.25h8c2.98 0 4.25-1.27 4.25-4.25v-1c0-2.23 0-3.25-3.25-3.25-0.72 0-0.87 0.09-1.3 0.41l-0.97 1.03c-0.72 0.76-1.69 1.18-2.73 1.18s-2.01-0.42-2.73-1.18l-0.97-1.03c-0.43-0.32-0.58-0.41-1.3-0.41z"/>
 <path d="m5 12.75c-0.41 0-0.75-0.34-0.75-0.75v-2c0-1.94 0-4.35 3.68-4.7 0.4-0.05 0.78 0.26 0.82 0.68 0.04 0.41-0.26 0.78-0.68 0.82-2.32 0.21-2.32 1.15-2.32 3.2v2c0 0.41-0.34 0.75-0.75 0.75z"/>
 <path d="m19 12.75c-0.41 0-0.75-0.34-0.75-0.75v-2c0-2.05 0-2.99-2.32-3.21-0.41-0.04-0.71-0.41-0.67-0.82s0.4-0.72 0.82-0.67c3.68 0.35 3.68 2.76 3.68 4.7v2c-0.01 0.41-0.35 0.75-0.76 0.75z"/>
</svg>
